img/icons/star.svg

<svg width="24" height="24" viewBox="0 0 24 24" fill="none" xmlns="http://www.w3.org/2000/svg">
<g clip-path="url(#clip0_180_3547)">
<path d="M11.0257 2.46867C11.3832 1.69379 12.4844 1.69379 12.8419 2.46866L15.1305 7.43043C15.2762 7.74624 15.5754 7.96368 15.9208 8.00463L21.347 8.64799C22.1944 8.74846 22.5347 9.79585 21.9082 10.3752L17.8965 14.0851C17.6411 14.3212 17.5268 14.6731 17.5946 15.0142L18.6595 20.3736C18.8258 21.2105 17.9349 21.8579 17.1902 21.4411L12.4222 18.7721C12.1188 18.6023 11.7488 18.6023 11.4454 18.7721L6.67735 21.4411C5.93274 21.8579 5.04178 21.2105 5.20808 20.3736L6.27298 15.0142C6.34076 14.6731 6.22645 14.3212 5.97111 14.0851L1.95942 10.3752C1.33292 9.79585 1.67323 8.74846 2.52063 8.64799L7.94678 8.00463C8.29214 7.96368 8.59143 7.74624 8.73709 7.43043L11.0257 2.46867Z" fill="#F5AF40" stroke="#F5AF40" stroke-width="2" stroke-linecap="round" stroke-linejoin="round"/>
</g>
<defs>
<clipPath id="clip0_180_3547">
<rect width="24" height="24" fill="white"/>
</clipPath>
</defs>
</svg>

<svg width="24" height="24" fill="none" xmlns="http://www.w3.org/2000/svg"><g clip-path="url(#clip0_180_3547)"><path d="M11.026 2.469a1 1 0 011.816 0L15.13 7.43a1 1 0 00.79.575l5.427.643a1 1 0 01.561 1.727l-4.012 3.71a1 1 0 00-.301.93l1.065 5.359a1 1 0 01-1.47 1.067l-4.768-2.669a1 1 0 00-.977 0l-4.768 2.67a1 1 0 01-1.469-1.068l1.065-5.36a1 1 0 00-.302-.929l-4.012-3.71a1 1 0 01.562-1.727l5.426-.643a1 1 0 00.79-.575l2.289-4.961z" fill="#F5AF40" stroke="#F5AF40" stroke-width="2" stroke-linecap="round" stroke-linejoin="round"/></g><defs><clipPath id="clip0_180_3547"><path fill="#fff" d="M0 0h24v24H0z"/></clipPath></defs></svg>
